X: 1
T: My Kindly Sweetheart
R: reel
Z: 2019 John Chambers <jc:trillian.mit.edu>
M: C|
L: 1/8
K: Bm
|:\
"Bm"B2d2 cBBc | "Bm"B2d2 "A"feef |\
"Bm"B2d2 cBBc | "A"cAAc fee2 :|
|:\
"D"d2fe "G"dBAB | "D"d2a2 "A"feef |\
"D"d2fe "G"dBAd | "A"cAAc feef :|
